X: 3699
T: Billy Pigg's
R: hornpipe
M: 4/4
K: Dmajor
de|fDFA dfaf|gEAc e3f|gAce aAce|fAdf a2 de|
fDFA dfaf|gEAc e3f|gAce aAce|f2d2d2:|
|:d(3e/f/g/|aAgA fAeA|dDFA d2 cd|eAfA gAfA|
ecdB A2 d(3e/f/g/|aAgA fAeA|dDFA d2cd|eAce aAce|d4 d2:|

